X: 30
T:Blue Head Reel, The
M:4/4
L:1/8
C:Ian Hardie
R:Reel
K:G
E2|"G"DGFG BGFG|"G"dGFG DCB,A,|"G"G,B,DG "C"G,CEG|"A"A,^CEA "D"DFAd|!
"G"DGFG BGFG|"G"dG"C"eG "G"dBGD|"C"EGce "G"dBGB|"D"cAFD "G"G2:|!
|:d|"G"gd^cd edcd|"G"bdad gd^cd|"C"ecBc acgc|"D"fd^cd bdad|!
"G"gd^cd edcd|"G"bdad gd^cd|"C"ecBc "G"dBGB|"D"cAFD "G" G2:||
